X:39
T:La jalousie est cause
R:
N:
O:France
Z:<anamnese@laposte.net> -- http://anamnese.fr.st
M:2/4
L:1/8
Q:1/4=125
K:Db
K:Bbm
%%MIDI ratio 2 1
F | B>B c>c | d2 c>c | B>B c>d | c3F |
    B>B c>c | d2 c>c | B>B c>d | c3c |
    f>e d>c | B2 B>B | e>d c>B | F3F |
    B>B c>d | A>A d2 | c>B B>=A| B3F |
    B>B c>d | A>A d2 | c>B B>=A| B3z ||
W:Derrire la fontenelle, prs d'un ruisseau coulant (2x)
W:Il y a trois demoiselles qui s'en vont en disant :
W:
W:   "La jalousie est cause que l'on vit en tourments !" (2x)
